src/img/tg.svg

<svg width="13" height="12" viewBox="0 0 13 12" fill="none" xmlns="http://www.w3.org/2000/svg">
<path d="M10.4655 11.3667C10.364 11.3667 10.2631 11.339 10.1766 11.2849L6.90789 9.23816L5.15473 10.4026C5.01723 10.4939 4.84001 10.5169 4.68035 10.4642C4.5209 10.4114 4.3998 10.2894 4.35657 10.1383L3.47629 7.05886L0.33094 5.94868C0.132928 5.87876 0.0016054 5.7039 0.000164561 5.5082C-0.00127628 5.3125 0.127439 5.13599 0.32449 5.0636L12.2843 0.67078C12.3385 0.6495 12.396 0.637213 12.4539 0.63392C12.4746 0.63278 12.4954 0.63278 12.516 0.633856C12.636 0.640443 12.7538 0.685537 12.8457 0.768757C12.8553 0.77737 12.8643 0.786174 12.8729 0.795357C12.949 0.875664 12.9909 0.973578 12.9988 1.07333C13.0007 1.09841 13.0006 1.1238 12.9982 1.1492C12.9965 1.16731 12.9937 1.18537 12.9897 1.20329L10.971 10.9807C10.9385 11.1377 10.8227 11.2692 10.6627 11.3305C10.5992 11.3548 10.5322 11.3667 10.4655 11.3667ZM7.19489 8.26992L10.1065 10.093L11.6773 2.4851L6.00407 7.52429L7.18117 8.26137C7.1859 8.26409 7.19043 8.26701 7.19489 8.26992ZM4.77106 7.86452L5.1609 9.22809L6.00084 8.67019L4.90101 7.9815C4.84989 7.94958 4.80612 7.90981 4.77106 7.86452ZM1.93061 5.4961L4.09036 6.25832C4.24508 6.31291 4.36186 6.43299 4.40412 6.58081L4.67802 7.53899C4.69057 7.42847 4.74485 7.32448 4.83301 7.24613L10.2388 2.44456L1.93061 5.4961Z" fill="#D1C1EC"/>
</svg>

<svg width="13" height="12" fill="none" xmlns="http://www.w3.org/2000/svg"><path d="M10.466 11.367a.546.546 0 0 1-.29-.082L6.909 9.238l-1.753 1.165a.551.551 0 0 1-.475.061.492.492 0 0 1-.323-.326l-.88-3.08L.33 5.949a.478.478 0 0 1-.33-.44.477.477 0 0 1 .323-.444L12.284.67a.55.55 0 0 1 .589.124.455.455 0 0 1 .117.408l-2.019 9.778a.486.486 0 0 1-.308.35.552.552 0 0 1-.197.036ZM7.195 8.27l2.912 1.823 1.57-7.608-5.673 5.04 1.177.736.014.009ZM4.77 7.865l.39 1.363L6 8.67l-1.1-.689a.497.497 0 0 1-.13-.116ZM1.93 5.496l2.16.762a.49.49 0 0 1 .313.323l.274.958a.462.462 0 0 1 .155-.293l5.406-4.801L1.93 5.496Z" fill="#D1C1EC"/></svg>
